X: 85
T: The old man's delight
C: anon.
O: Ireland
B: Francis O'Neill: "The Dance Music of Ireland" (1907) no. 85
R: Double jig
Z: Transcribed by Frank Nordberg - http://www.musicaviva.com
F: http://www.musicaviva.com/abc/tunes/ireland/oneill-1001/oneill-1001-008
5.abc
M: 6/8
L: 1/8
K: A
(a/f/)|ecA A2c|BGE E2 (a/f/)|ecA Ace|fba g2 (a/f/)|ecA ABc|BGE E2E|FGA BG
E|A3 A2:|
|:e|cAc ece|fdf e2 (a/f/)|ecA ABc|BGE E2 (e/d/)|cAc ece|fdf e2 (a/f/)|ecA
 EFG|A3 A2:|
W:
W:
W: From Musica Viva - http://www.musicaviva.com
W: the Internet center for free sheet music downloads.


